src/24/panel/copy-sync8.svg

<svg xmlns="http://www.w3.org/2000/svg" width="24" height="24" x="0" y="0" version="1.1" xml:space="preserve">
 <defs>
  <style id="current-color-scheme" type="text/css">
   .ColorScheme-Text { color:#bebebe; } .ColorScheme-Highlight { color:#5294e2; }
  </style>
 </defs>
 <path style="fill:currentColor" class="ColorScheme-Text" d="M 20.634766 3.0253906 L 15.017578 9.84375 L 17 11 L 21 3.3515625 L 20.634766 3.0253906 z M 6 7.5 L 2 11 L 6.375 10.375 L 7.3242188 16 L 10.710938 16 L 7.5 8 L 6 7.5 z M 13 10.029297 L 10 11 L 11 14 L 15 11 L 13 10.029297 z M 16 11.599609 L 10.855469 16 L 19.199219 16 L 18 13 L 16 11.599609 z M 4.8359375 17 C 4.3726375 17 4 17.372938 4 17.835938 L 4 19.164062 C 4 19.627063 4.3726375 20 4.8359375 20 L 18 20 L 19.164062 20 C 19.627063 20 20 19.625109 20 19.162109 L 20 17.835938 C 20 17.372937 19.627062 17 19.164062 17 L 18 17 L 4.8359375 17 z"/>
</svg>

<svg xmlns="http://www.w3.org/2000/svg" width="24" height="24"><defs><style id="current-color-scheme" type="text/css"></style></defs><path d="M20.635 3.025l-5.617 6.819L17 11l4-7.648-.365-.327zM6 7.5L2 11l4.375-.625.95 5.625h3.386L7.5 8 6 7.5zm7 2.53L10 11l1 3 4-3-2-.97zm3 1.57L10.855 16H19.2L18 13l-2-1.4zM4.836 17a.834.834 0 0 0-.836.836v1.328c0 .463.373.836.836.836h14.328a.836.836 0 0 0 .836-.838v-1.326a.834.834 0 0 0-.836-.836H4.836z" fill="currentColor" color="#bebebe"/></svg>
